X: 10272
T: HORNPIPE
%R: hornpipe, reel
B: W. Hamilton "Universal Tune-Book" Vol. 1 Glasgow 1844 p.27 #2
S: http://imslp.org/wiki/Hamilton's_Universal_Tune-Book_(Various)
Z: 2016 John Chambers <jc:trillian.mit.edu>
M: C
L: 1/8
K: Eb
% - - - - - - - - - - - - - - - - - - - - - - - - -
B,2 |\
EDEF EB,G,B, | EeBG EFGE | AFcB AGFE | DBFD B,DFD |\
EDEF EB,G,B, | EeBG EFGE | AFcA GFED | E2E2E2 :|
|: B2 |\
e2e2 dB=AB | f2fe dB=AB | afdB AFGE | DBFD B,2 (3(B,CD) |\
E2E2 CA,G,A, | F2FE DB,=A,B, | eBAG FADF | E2G2E2 :|
% - - - - - - - - - - - - - - - - - - - - - - - - -

%%sep 1 1 500
%%sep 1 1 500

